X: 37
T:Black Joker, Bledington
M:6/8
L:1/8
A:Bledington
P:A(AB)4
K:G
P:A
|:D2G GFG|ABA A2G|G2d dcB|AcB AGF|GAB E2E|DEF G3:|
P:B
|:BAG Bcd|e2e d3 |G2G Bcd|e2e d3 |
  c2c B2B|A2A A2G|G2d dcB|AcB AGF|GAB E2E|DEF G3:|

